!!!OTL: WAER ICH EIN WILDER FALKE, ICH WOLLT MICH SCHWINGEN AUS
!!!ARE: Europa, Mitteleuropa, Deutschland, Coburg
!!!SCT: Z0285
!!!YEM: Copyright 1995, estate of Helmut Schaffrath.
**kern
*ICvox
*Ivox
*M2/4
*k[b-]
*F:
{16f
16g
=1
8a
16g
16a
8b-
16a
16b-
=2
4cc
8cc}
{16b-
16cc
=3
8dd
16cc
16dd
8ee
16dd
16ee
=4
4.ff}
{16ee
16dd
=5
8cc
8cc
8cc
16dd
16cc
=6
4b-
8b-}
{16cc
16b-
=7
8a
16b-
16a
8g
16a
16g
=8
4.f}
==
!!!AGN: Lyrisches Lied, Romanze
!!!ONB: ESAC (Essen Associative Code) Database: ZUCCAL
!!!AMT: simple duple
!!!AIN: vox
!!!EED: Helmut Schaffrath
!!!EEV: 1.0
*-
